X:108
T:Cumberland Gap
C:Trad. - Ricky Skaggs solo 
N:From "Bluegrass Mandolin Extravaganza" Transcribed by Mike Stangeland
R:bluegrass
L:1/8
Q:1/4=262
M:4/4
K:G
z6 gg |: "G"ge dB G2 [BG][AD] | Bd [e2e2] [e2e2] ef | ed BA GB AG | "D"ED [BD][BD] "G"[B2D2G,2] gg | 
ge dB AG GA | Bd [e2e2] [e2e2] ef | ed BA GB AG | "D"ED [BD][BD] "G"[B2D2G,2] eg | 
ge dB G2 [BG][AD] | Bd [e2e2] [e2e2] ef | ed BA GB AG | ED [BD][BD] [B2D2G,2] eg | 
g2 gg bg ag | "D"ea aa ab ag | e[gd] gg bg ag | "G"dg ga g2 gg | dg gg bg ag | 
"D"ea aa ab ag | e[gd] gg bg ag | "G"dg ga g2 g2 :| 


